static/img/svg/image.svg

<svg xmlns="http://www.w3.org/2000/svg" width="24" height="24" viewBox="0 0 24 24"><path d="M20.999 4H3.201c-.584-.12-1.202.358-1.202.979V19a1 1 0 0 0 1 1h18a1 1 0 0 0 1-1V5a1 1 0 0 0-1-1zm-1 14h-16V6h16v12z"/><path d="M12 16h5.999L14 8l-3.637 5.818L8.999 12l-3 4h3z"/><circle cx="7.499" cy="9.5" r="1.5"/></svg>

<svg xmlns="http://www.w3.org/2000/svg" width="24" height="24" viewBox="0 0 24 24"><path d="M20.999,4H3.201C2.617,3.88,1.999,4.358,1.999,4.979V19c0,0.553,0.447,1,1,1h18c0.553,0,1-0.447,1-1V5 C21.999,4.448,21.552,4,20.999,4z M19.999,18h-16V6h16V18z"/><path d="M12 16L17.999 16 14 8 10.363 13.818 8.999 12 5.999 16 8.999 16z"/><circle cx="7.499" cy="9.5" r="1.5"/></svg>
